X:1000
T:Pray Goody
A:Wyresdale, Lancashire
B:E and J Winder, 1835-41
L:1/8
M:C
O:England
Z:Richard Robinson 
%%TUNEURL: http://www.leeds.ac.uk/music/Info/RRTuneBk/gettune/00001109.html
%%ID:00001109
K:G
d4 cBAG | BAGF GBdf | g2fe dBAG | gdcB (B2A2) |
d4 cBAG | BAGF GBdf | {ef}g2fe dBec | BdcA G2 z2 ||
g2d2 e2d2 | gBBB (c2B2) | gddd gddd | gdcB HB2 HA2 |]
